; generated by SuperSlicer 2.3.56 on 2021-07-23 at 15:04:25 UTC

; 

; external perimeters extrusion width = 0.45mm
; perimeters extrusion width = 0.45mm
; infill extrusion width = 0.45mm
; solid infill extrusion width = 0.45mm
; top infill extrusion width = 0.40mm
; first layer extrusion width = 0.42mm

; external perimeters extrusion width = 0.45mm
; perimeters extrusion width = 0.45mm
; infill extrusion width = 0.45mm
; solid infill extrusion width = 0.45mm
; top infill extrusion width = 0.40mm
; first layer extrusion width = 0.42mm

; object:{"name":"8x8-grid","id":"8x8-grid.stl id:0 copy 0","object_center":[101.180000,107.402622,0.000000],"boundingbox_center":[101.180000,107.402622,2.000000],"boundingbox_size":[179.000000,179.000000,4.000000]}
; Total objects to print: 1
M486 T1
; plater:{"center":[101.180000,107.402622,0.000000],"boundingbox_center":[101.180000,107.402622,2.000000],"boundingbox_size":[179.000000,179.000000,4.000000]}

M73 P0 R204
M73 Q0 S205
;TYPE:Custom
M862.3 P "MK3S" ; printer model check
M862.1 P0.4 ; nozzle diameter check
M115 U3.9.3 ; tell printer latest fw version
G90 ; use absolute coordinates
M83 ; extruder relative mode
M104 S215 ; set extruder temp
M140 S60 ; set bed temp
M190 S60 ; wait for bed temp
M109 S215 ; wait for extruder temp
G28 W ; home all without mesh bed level
G80 ; mesh bed leveling
G1 Y-3.0 F1000.0 ; go outside print area
G92 E0.0
G1 X60.0 E9.0 F1000.0 ; intro line
G1 X100.0 E12.5 F1000.0 ; intro line
G92 E0.0
M221 S95

; Don't change E values below. Excessive value can damage the printer.
M907 E430 ; set extruder motor current
M107
G21 ; set units to millimeters
G90 ; use absolute coordinates
M83 ; use relative distances for extrusion
M900 K0.05 ; Filament gcode LA 1.5
M900 K30 ; Filament gcode LA 1.0
;LAYER_CHANGE
;Z:0.2
;HEIGHT:0.2
;BEFORE_LAYER_CHANGE
;0.2


G1 E-0.80000 F2100
G1 Z0.400000 F10800
;AFTER_LAYER_CHANGE
;0.2
G1 X11.075 Y16.492
G1 Z0.200000
G1 E0.80000 F2100
;TYPE:Skirt
;WIDTH:0.45
G1 F1200
G1 X11.771 Y16.029 E0.02829
G1 X12.288 Y15.835 E0.01870
G1 X13.162 Y15.699 E0.02996
G1 X189.184 Y15.699 E5.95811
G1 X190.405 Y15.942 E0.04217
G1 X191.439 Y16.631 E0.04205
G1 X192.093 Y17.301 E0.03166
G1 X192.553 Y17.992 E0.02811
G1 X192.747 Y18.505 E0.01857
G1 X192.883 Y19.371 E0.02966
G1 X192.884 Y195.414 E5.95884
G1 X192.641 Y196.625 E0.04180
G1 X191.962 Y197.650 E0.04164
G1 X191.285 Y198.313 E0.03208
G1 X190.587 Y198.778 E0.02839
G1 X190.066 Y198.972 E0.01882
G1 X189.187 Y199.106 E0.03010
G1 X13.169 Y199.106 E5.95799
M73 Q0 S204
G1 X11.957 Y198.864 E0.04182
G1 X10.933 Y198.186 E0.04159
G1 X10.267 Y197.505 E0.03223
G1 X9.804 Y196.808 E0.02832
G1 X9.611 Y196.290 E0.01870
G1 X9.476 Y195.410 E0.03016
G1 X9.476 Y19.392 E5.95800
G1 X9.719 Y18.180 E0.04182
G1 X10.398 Y17.155 E0.04163
G1 X11.032 Y16.534 E0.03004
; INIT printing object 8x8-grid.stl id:0 copy 0
;WIPE_START
G1 F8640
G1 X11.771 Y16.029 E-0.20661
G1 X12.288 Y15.835 E-0.12753
G1 X13.162 Y15.699 E-0.20440
G1 X14.122 Y15.699 E-0.22146
;WIPE_END
G1 E-0.04000 F2100
M73 P0 R203
G1 Z1.000000 F10800
; printing object 8x8-grid.stl id:0 copy 0
M486 S0
G1 X13.105 Y18.720
G1 Z0.200000
G1 E0.80000 F2100
;TYPE:Internal perimeter
;WIDTH:0.42
G1 F1200
G1 X13.257 Y18.690 E0.00489
G1 X189.103 Y18.690 E5.51350
G1 X189.256 Y18.720 E0.00489
G1 X189.319 Y18.762 E0.00239
G1 X189.519 Y19.063 E0.01133
G1 X189.820 Y19.264 E0.01133
G1 X189.863 Y19.327 E0.00239
G1 X189.893 Y19.480 E0.00489
G1 X189.893 Y195.325 E5.51350
G1 X189.863 Y195.478 E0.00489
G1 X189.820 Y195.542 E0.00241
G1 X189.519 Y195.743 E0.01132
G1 X189.319 Y196.043 E0.01131
G1 X189.256 Y196.085 E0.00240
G1 X189.103 Y196.116 E0.00490
G1 X13.257 Y196.116 E5.51350
G1 X13.104 Y196.085 E0.00489
G1 X13.040 Y196.042 E0.00242
G1 X12.840 Y195.743 E0.01130
G1 X12.540 Y195.542 E0.01130
G1 X12.498 Y195.478 E0.00242
G1 X12.467 Y195.325 E0.00489
G1 X12.467 Y19.480 E5.51350
G1 X12.498 Y19.327 E0.00490
G1 X12.540 Y19.263 E0.00240
G1 X12.840 Y19.063 E0.01131
G1 X13.041 Y18.763 E0.01132
G1 X13.055 Y18.753 E0.00053
G1 X12.845 Y18.440 F10800
;TYPE:External perimeter
G1 F1200
G1 X12.957 Y18.365 E0.00424
G1 X13.220 Y18.313 E0.00841
G1 X189.140 Y18.313 E5.51583
G1 X189.403 Y18.365 E0.00841
G1 X189.591 Y18.491 E0.00710
G1 X189.791 Y18.791 E0.01132
G1 X190.092 Y18.992 E0.01132
G1 X190.218 Y19.180 E0.00710
G1 X190.270 Y19.443 E0.00841
G1 X190.270 Y195.362 E5.51583
M73 Q0 S203
G1 X190.218 Y195.625 E0.00841
G1 X190.092 Y195.814 E0.00712
G1 X189.791 Y196.014 E0.01132
G1 X189.591 Y196.314 E0.01130
G1 X189.403 Y196.440 E0.00710
G1 X189.140 Y196.493 E0.00842
G1 X13.220 Y196.493 E5.51583
M73 P0 R202
G1 X12.957 Y196.440 E0.00841
G1 X12.768 Y196.314 E0.00712
G1 X12.568 Y196.014 E0.01130
G1 X12.268 Y195.814 E0.01130
G1 X12.142 Y195.625 E0.00712
G1 X12.090 Y195.362 E0.00841
G1 X12.090 Y19.443 E5.51583
G1 X12.142 Y19.180 E0.00842
G1 X12.268 Y18.991 E0.00710
G1 X12.568 Y18.791 E0.01130
G1 X12.769 Y18.491 E0.01132
G1 X12.795 Y18.473 E0.00100
G1 X12.966 Y18.500 F10800
;WIPE_START
G1 F8640
G1 X12.957 Y18.365 E-0.04506
G1 X13.220 Y18.313 E-0.06191
G1 X16.048 Y18.313 E-0.65303
;WIPE_END
G1 E-0.04000 F2100
G1 Z0.600000 F10800
G1 X189.315 Y19.267
G1 Z0.200000
G1 E0.80000 F2100
;TYPE:Solid infill
;WIDTH:0.420755
G1 F1800
G1 X189.600 Y19.457 E0.01074
G1 X189.610 Y19.508 E0.00163
G1 X189.610 Y195.297 E5.52249
M73 Q1 S203
G1 X189.600 Y195.349 E0.00164
G1 X189.315 Y195.538 E0.01074
G1 X189.126 Y195.822 E0.01072
G1 X189.075 Y195.832 E0.00164
G1 X13.285 Y195.832 E5.52249
M73 P1 R202
G1 X13.234 Y195.822 E0.00165
G1 X13.044 Y195.538 E0.01072
G1 X12.760 Y195.349 E0.01072
G1 X12.750 Y195.297 E0.00165
G1 X12.750 Y19.508 E5.52249
G1 X12.760 Y19.457 E0.00164
G1 X13.044 Y19.267 E0.01072
G1 X13.234 Y18.983 E0.01074
G1 X13.285 Y18.973 E0.00164
G1 X189.075 Y18.973 E5.52249
G1 X189.126 Y18.983 E0.00163
G1 X189.282 Y19.217 E0.00886
G1 X189.043 Y19.540 F10800
G1 F1800
G1 X189.232 Y19.666 E0.00714
G1 X189.232 Y195.140 E5.51258
G1 X189.043 Y195.266 E0.00715
G1 X188.917 Y195.455 E0.00712
G1 X13.442 Y195.455 E5.51260
M73 Q1 S202
G1 X13.316 Y195.266 E0.00713
G1 X13.128 Y195.140 E0.00713
G1 X13.128 Y19.665 E5.51260
G1 X13.316 Y19.540 E0.00712
G1 X13.443 Y19.350 E0.00715
G1 X188.917 Y19.350 E5.51258
G1 X189.010 Y19.490 E0.00526
G1 X188.715 Y19.728 F10800
M73 P1 R201
G1 F1800
G1 X188.771 Y19.812 E0.00317
G1 X188.855 Y19.868 E0.00317
G1 X188.855 Y194.938 E5.49989
G1 X188.771 Y194.994 E0.00317
G1 X188.715 Y195.077 E0.00314
G1 X13.644 Y195.077 E5.49992
G1 X13.589 Y194.994 E0.00314
G1 X13.505 Y194.938 E0.00314
G1 X13.505 Y19.867 E5.49992
G1 X13.589 Y19.812 E0.00314
G1 X13.645 Y19.728 E0.00317
G1 X188.655 Y19.728 E5.49801
G1 X188.477 Y20.106 F10800
G1 F1800
G1 X188.477 Y194.700 E5.48493
G1 X13.883 Y194.700 E5.48493
G1 X13.883 Y20.106 E5.48493
G1 X188.417 Y20.106 E5.48305
M73 Q1 S201
G1 X188.099 Y20.483 F10800
G1 F1800
G1 X188.099 Y194.322 E5.46120
G1 X14.261 Y194.322 E5.46120
G1 X14.261 Y20.483 E5.46120
M73 P1 R200
G1 X188.039 Y20.483 E5.45932
G1 X187.722 Y20.861 F10800
G1 F1800
G1 X187.722 Y193.944 E5.43748
G1 X14.638 Y193.944 E5.43748
M73 P2 R200
M73 Q2 S201
G1 X14.638 Y20.861 E5.43748
G1 X187.662 Y20.861 E5.43559
G1 X187.344 Y21.239 F10800
G1 F1800
G1 X187.344 Y193.567 E5.41375
G1 X15.016 Y193.567 E5.41375
G1 X15.016 Y21.239 E5.41375
M73 Q2 S200
G1 X187.284 Y21.239 E5.41186
G1 X186.966 Y21.616 F10800
G1 F1800
G1 X186.966 Y193.189 E5.39002
M73 P2 R199
G1 X15.394 Y193.189 E5.39002
G1 X15.394 Y21.616 E5.39002
G1 X186.906 Y21.616 E5.38814
G1 X186.589 Y21.994 F10800
G1 F1800
G1 X186.589 Y192.811 E5.36629
G1 X15.771 Y192.811 E5.36629
G1 X15.771 Y21.994 E5.36629
G1 X186.529 Y21.994 E5.36441
G1 X186.211 Y22.372 F10800
G1 F1800
G1 X186.211 Y192.434 E5.34257
M73 Q2 S199
G1 X16.149 Y192.434 E5.34257
G1 X16.149 Y22.372 E5.34257
G1 X186.151 Y22.372 E5.34068
M73 P2 R198
G1 X185.833 Y22.749 F10800
G1 F1800
G1 X185.833 Y192.056 E5.31884
G1 X16.527 Y192.056 E5.31884
G1 X16.527 Y22.749 E5.31884
G1 X185.773 Y22.749 E5.31695
M73 P3 R198
M73 Q3 S199
G1 X185.456 Y23.127 F10800
G1 F1800
G1 X185.456 Y191.678 E5.29511
G1 X16.904 Y191.678 E5.29511
G1 X16.904 Y23.127 E5.29511
G1 X185.396 Y23.127 E5.29323
M73 Q3 S198
G1 X185.078 Y23.504 F10800
G1 F1800
G1 X185.078 Y191.301 E5.27139
G1 X17.282 Y191.301 E5.27139
M73 P3 R197
G1 X17.282 Y23.504 E5.27139
G1 X185.018 Y23.504 E5.26950
G1 X184.701 Y23.882 F10800
G1 F1800
G1 X184.701 Y190.923 E5.24766
G1 X17.659 Y190.923 E5.24766
G1 X17.659 Y23.882 E5.24766
G1 X184.641 Y23.882 E5.24577
G1 X184.323 Y24.260 F10800
G1 F1800
G1 X184.323 Y190.546 E5.22393
G1 X18.037 Y190.546 E5.22393
M73 Q3 S197
G1 X18.037 Y24.260 E5.22393
G1 X184.263 Y24.260 E5.22205
G1 X183.945 Y24.637 F10800
G1 F1800
G1 X183.945 Y190.168 E5.20020
M73 P3 R196
G1 X18.415 Y190.168 E5.20020
G1 X18.415 Y24.637 E5.20020
G1 X183.885 Y24.637 E5.19832
G1 X183.568 Y25.015 F10800
G1 F1800
G1 X183.568 Y189.790 E5.17648
G1 X18.792 Y189.790 E5.17648
M73 P4 R196
M73 Q4 S197
G1 X18.792 Y25.015 E5.17648
G1 X183.508 Y25.015 E5.17459
G1 X183.190 Y25.393 F10800
G1 F1800
G1 X183.190 Y189.413 E5.15275
M73 Q4 S196
G1 X19.170 Y189.413 E5.15275
G1 X19.170 Y25.393 E5.15275
G1 X183.130 Y25.393 E5.15086
M73 P4 R195
G1 X182.812 Y25.770 F10800
G1 F1800
G1 X182.812 Y189.035 E5.12902
G1 X19.548 Y189.035 E5.12902
G1 X19.548 Y25.770 E5.12902
G1 X182.752 Y25.770 E5.12714
G1 X182.435 Y26.148 F10800
G1 F1800
G1 X182.435 Y188.657 E5.10529
G1 X19.925 Y188.657 E5.10529
G1 X19.925 Y26.148 E5.10529
G1 X182.375 Y26.148 E5.10341
M73 Q4 S195
G1 X182.057 Y26.526 F10800
G1 F1800
G1 X182.057 Y188.280 E5.08157
G1 X20.303 Y188.280 E5.08157
G1 X20.303 Y26.526 E5.08157
M73 P4 R194
G1 X181.997 Y26.526 E5.07968
G1 X181.679 Y26.903 F10800
G1 F1800
G1 X181.679 Y187.902 E5.05784
G1 X20.681 Y187.902 E5.05784
G1 X20.681 Y26.903 E5.05784
G1 X181.619 Y26.903 E5.05596
M73 P5 R194
G1 X181.302 Y27.281 F10800
G1 F1800
G1 X181.302 Y187.524 E5.03411
M73 Q5 S195
G1 X21.058 Y187.524 E5.03411
G1 X21.058 Y27.281 E5.03411
M73 Q5 S194
G1 X181.242 Y27.281 E5.03223
G1 X180.924 Y27.658 F10800
G1 F1800
G1 X180.924 Y187.147 E5.01039
G1 X21.436 Y187.147 E5.01039
M73 P5 R193
G1 X21.436 Y27.658 E5.01039
G1 X180.864 Y27.658 E5.00850
G1 X180.547 Y28.036 F10800
G1 F1800
G1 X180.547 Y186.769 E4.98666
G1 X21.813 Y186.769 E4.98666
G1 X21.813 Y28.036 E4.98666
G1 X180.487 Y28.036 E4.98477
G1 X180.169 Y28.414 F10800
G1 F1800
G1 X180.169 Y186.392 E4.96293
G1 X22.191 Y186.392 E4.96293
G1 X22.191 Y28.414 E4.96293
M73 Q5 S193
G1 X180.109 Y28.414 E4.96105
G1 X179.791 Y28.791 F10800
G1 F1800
G1 X179.791 Y186.014 E4.93920
M73 P5 R192
G1 X22.569 Y186.014 E4.93920
G1 X22.569 Y28.791 E4.93920
G1 X179.731 Y28.791 E4.93732
G1 X179.414 Y29.169 F10800
G1 F1800
G1 X179.414 Y185.636 E4.91548
G1 X22.946 Y185.636 E4.91548
G1 X22.946 Y29.169 E4.91548
M73 P6 R192
G1 X179.354 Y29.169 E4.91359
M73 Q6 S193
G1 X179.036 Y29.547 F10800
G1 F1800
G1 X179.036 Y185.259 E4.89175
G1 X23.324 Y185.259 E4.89175
M73 Q6 S192
G1 X23.324 Y29.547 E4.89175
G1 X178.976 Y29.547 E4.88986
G1 X178.658 Y29.924 F10800
G1 F1800
G1 X178.658 Y184.881 E4.86802
M73 P6 R191
G1 X23.702 Y184.881 E4.86802
G1 X23.702 Y29.924 E4.86802
G1 X178.598 Y29.924 E4.86614
G1 X178.281 Y30.302 F10800
G1 F1800
G1 X178.281 Y184.503 E4.84430
G1 X24.079 Y184.503 E4.84430
G1 X24.079 Y30.302 E4.84430
G1 X178.221 Y30.302 E4.84241
G1 X177.903 Y30.680 F10800
G1 F1800
G1 X177.903 Y184.126 E4.82057
G1 X24.457 Y184.126 E4.82057
M73 Q6 S191
G1 X24.457 Y30.680 E4.82057
G1 X177.843 Y30.680 E4.81868
M73 P6 R190
G1 X177.525 Y31.057 F10800
G1 F1800
G1 X177.525 Y183.748 E4.79684
G1 X24.835 Y183.748 E4.79684
G1 X24.835 Y31.057 E4.79684
G1 X177.465 Y31.057 E4.79496
G1 X177.148 Y31.435 F10800
G1 F1800
G1 X177.148 Y183.370 E4.77311
G1 X25.212 Y183.370 E4.77311
G1 X25.212 Y31.435 E4.77311
M73 P7 R190
G1 X177.088 Y31.435 E4.77123
M73 Q7 S191
G1 X176.770 Y31.812 F10800
G1 F1800
G1 X176.770 Y182.993 E4.74939
M73 Q7 S190
G1 X25.590 Y182.993 E4.74939
G1 X25.590 Y31.812 E4.74939
G1 X176.710 Y31.812 E4.74750
M73 P7 R189
G1 X176.393 Y32.190 F10800
G1 F1800
G1 X176.393 Y182.615 E4.72566
G1 X25.967 Y182.615 E4.72566
G1 X25.967 Y32.190 E4.72566
G1 X176.333 Y32.190 E4.72377
G1 X176.015 Y32.568 F10800
G1 F1800
G1 X176.015 Y182.238 E4.70193
G1 X26.345 Y182.238 E4.70193
G1 X26.345 Y32.568 E4.70193
G1 X175.955 Y32.568 E4.70005
G1 X175.637 Y32.945 F10800
G1 F1800
G1 X175.637 Y181.860 E4.67820
M73 Q7 S189
G1 X26.723 Y181.860 E4.67820
G1 X26.723 Y32.945 E4.67820
G1 X175.577 Y32.945 E4.67632
M73 P7 R188
G1 X175.260 Y33.323 F10800
G1 F1800
G1 X175.260 Y181.482 E4.65448
G1 X27.100 Y181.482 E4.65448
G1 X27.100 Y33.323 E4.65448
G1 X175.200 Y33.323 E4.65259
G1 X174.882 Y33.701 F10800
G1 F1800
G1 X174.882 Y181.105 E4.63075
G1 X27.478 Y181.105 E4.63075
G1 X27.478 Y33.701 E4.63075
G1 X174.822 Y33.701 E4.62887
M73 P8 R188
M73 Q8 S189
G1 X174.504 Y34.078 F10800
G1 F1800
G1 X174.504 Y180.727 E4.60702
M73 Q8 S188
G1 X27.856 Y180.727 E4.60702
G1 X27.856 Y34.078 E4.60702
G1 X174.444 Y34.078 E4.60514
M73 P8 R187
G1 X174.127 Y34.456 F10800
G1 F1800
G1 X174.127 Y180.349 E4.58330
G1 X28.233 Y180.349 E4.58330
G1 X28.233 Y34.456 E4.58330
G1 X174.067 Y34.456 E4.58141
G1 X173.749 Y34.834 F10800
G1 F1800
G1 X173.749 Y179.972 E4.55957
G1 X28.611 Y179.972 E4.55957
G1 X28.611 Y34.834 E4.55957
G1 X173.689 Y34.834 E4.55768
G1 X173.371 Y35.211 F10800
G1 F1800
G1 X173.371 Y179.594 E4.53584
G1 X28.989 Y179.594 E4.53584
M73 Q8 S187
G1 X28.989 Y35.211 E4.53584
G1 X173.311 Y35.211 E4.53396
G1 X172.994 Y35.589 F10800
G1 F1800
G1 X172.994 Y179.216 E4.51211
M73 P8 R186
G1 X29.366 Y179.216 E4.51211
G1 X29.366 Y35.589 E4.51211
G1 X172.934 Y35.589 E4.51023
G1 X172.616 Y35.966 F10800
G1 F1800
G1 X172.616 Y178.839 E4.48839
G1 X29.744 Y178.839 E4.48839
G1 X29.744 Y35.966 E4.48839
G1 X172.556 Y35.966 E4.48650
G1 X172.239 Y36.344 F10800
G1 F1800
G1 X172.239 Y178.461 E4.46466
M73 P9 R186
G1 X30.121 Y178.461 E4.46466
M73 Q9 S186
G1 X30.121 Y36.344 E4.46466
G1 X172.179 Y36.344 E4.46278
G1 X171.861 Y36.722 F10800
G1 F1800
G1 X171.861 Y178.084 E4.44093
M73 P9 R185
G1 X30.499 Y178.084 E4.44093
G1 X30.499 Y36.722 E4.44093
G1 X171.801 Y36.722 E4.43905
G1 X171.483 Y37.099 F10800
G1 F1800
G1 X171.483 Y177.706 E4.41721
G1 X30.877 Y177.706 E4.41721
G1 X30.877 Y37.099 E4.41721
G1 X171.423 Y37.099 E4.41532
G1 X171.106 Y37.477 F10800
G1 F1800
G1 X171.106 Y177.328 E4.39348
G1 X31.254 Y177.328 E4.39348
G1 X31.254 Y37.477 E4.39348
M73 Q9 S185
G1 X171.046 Y37.477 E4.39159
G1 X170.728 Y37.855 F10800
G1 F1800
G1 X170.728 Y176.951 E4.36975
G1 X31.632 Y176.951 E4.36975
M73 P9 R184
G1 X31.632 Y37.855 E4.36975
G1 X170.668 Y37.855 E4.36787
G1 X170.350 Y38.232 F10800
G1 F1800
G1 X170.350 Y176.573 E4.34602
G1 X32.010 Y176.573 E4.34602
G1 X32.010 Y38.232 E4.34602
G1 X170.290 Y38.232 E4.34414
G1 X169.973 Y38.610 F10800
G1 F1800
G1 X169.973 Y176.195 E4.32230
G1 X32.387 Y176.195 E4.32230
G1 X32.387 Y38.610 E4.32230
M73 P10 R184
G1 X169.913 Y38.610 E4.32041
M73 Q10 S184
G1 X169.595 Y38.988 F10800
G1 F1800
G1 X169.595 Y175.818 E4.29857
G1 X32.765 Y175.818 E4.29857
G1 X32.765 Y38.988 E4.29857
M73 P10 R183
G1 X169.535 Y38.988 E4.29668
G1 X169.217 Y39.365 F10800
G1 F1800
G1 X169.217 Y175.440 E4.27484
G1 X33.143 Y175.440 E4.27484
G1 X33.143 Y39.365 E4.27484
G1 X169.157 Y39.365 E4.27296
G1 X168.840 Y39.743 F10800
G1 F1800
G1 X168.840 Y175.062 E4.25112
G1 X33.520 Y175.062 E4.25112
G1 X33.520 Y39.743 E4.25112
G1 X168.780 Y39.743 E4.24923
G1 X168.462 Y40.120 F10800
G1 F1800
G1 X168.462 Y174.685 E4.22739
M73 Q10 S183
G1 X33.898 Y174.685 E4.22739
G1 X33.898 Y40.120 E4.22739
G1 X168.402 Y40.120 E4.22550
M73 P10 R182
G1 X168.085 Y40.498 F10800
G1 F1800
G1 X168.085 Y174.307 E4.20366
G1 X34.275 Y174.307 E4.20366
G1 X34.275 Y40.498 E4.20366
G1 X168.025 Y40.498 E4.20178
G1 X167.707 Y40.876 F10800
G1 F1800
G1 X167.707 Y173.930 E4.17993
G1 X34.653 Y173.930 E4.17993
G1 X34.653 Y40.876 E4.17993
G1 X167.647 Y40.876 E4.17805
G1 X167.329 Y41.253 F10800
G1 F1800
G1 X167.329 Y173.552 E4.15621
G1 X35.031 Y173.552 E4.15621
M73 P11 R182
M73 Q10 S182
G1 X35.031 Y41.253 E4.15621
M73 Q11 S182
G1 X167.269 Y41.253 E4.15432
G1 X166.952 Y41.631 F10800
