; generated by SuperSlicer 2.3.56 on 2021-07-22 at 12:37:17 UTC

; 

; external perimeters extrusion width = 0.45mm
; perimeters extrusion width = 0.45mm
; infill extrusion width = 0.45mm
; solid infill extrusion width = 0.45mm
; top infill extrusion width = 0.40mm
; first layer extrusion width = 0.42mm

; external perimeters extrusion width = 0.45mm
; perimeters extrusion width = 0.45mm
; infill extrusion width = 0.45mm
; solid infill extrusion width = 0.45mm
; top infill extrusion width = 0.40mm
; first layer extrusion width = 0.42mm

; external perimeters extrusion width = 0.45mm
; perimeters extrusion width = 0.45mm
; infill extrusion width = 0.45mm
; solid infill extrusion width = 0.45mm
; top infill extrusion width = 0.40mm
; first layer extrusion width = 0.42mm

; external perimeters extrusion width = 0.45mm
; perimeters extrusion width = 0.45mm
; infill extrusion width = 0.45mm
; solid infill extrusion width = 0.45mm
; top infill extrusion width = 0.40mm
; first layer extrusion width = 0.42mm

; external perimeters extrusion width = 0.45mm
; perimeters extrusion width = 0.45mm
; infill extrusion width = 0.45mm
; solid infill extrusion width = 0.45mm
; top infill extrusion width = 0.40mm
; first layer extrusion width = 0.42mm

; external perimeters extrusion width = 0.45mm
; perimeters extrusion width = 0.45mm
; infill extrusion width = 0.45mm
; solid infill extrusion width = 0.45mm
; top infill extrusion width = 0.40mm
; first layer extrusion width = 0.42mm

; external perimeters extrusion width = 0.45mm
; perimeters extrusion width = 0.45mm
; infill extrusion width = 0.45mm
; solid infill extrusion width = 0.45mm
; top infill extrusion width = 0.40mm
; first layer extrusion width = 0.42mm

; external perimeters extrusion width = 0.45mm
; perimeters extrusion width = 0.45mm
; infill extrusion width = 0.45mm
; solid infill extrusion width = 0.45mm
; top infill extrusion width = 0.40mm
; first layer extrusion width = 0.42mm

; external perimeters extrusion width = 0.45mm
; perimeters extrusion width = 0.45mm
; infill extrusion width = 0.45mm
; solid infill extrusion width = 0.45mm
; top infill extrusion width = 0.40mm
; first layer extrusion width = 0.42mm

; object:{"name":"Merged","id":"Merged id:0 copy 0","object_center":[127.896539,55.622615,0.000000],"boundingbox_center":[127.896539,55.622615,3.000000],"boundingbox_size":[76.000000,21.000000,6.000000]}
; Total objects to print: 1
M486 T1
; plater:{"center":[127.896539,55.622615,0.000000],"boundingbox_center":[127.896539,55.622615,3.000000],"boundingbox_size":[76.000000,21.000000,6.000000]}

M73 P0 R30
M73 Q0 S30
;TYPE:Custom
M862.3 P "MK3S" ; printer model check
M862.1 P0.4 ; nozzle diameter check
M115 U3.9.3 ; tell printer latest fw version
G90 ; use absolute coordinates
M83 ; extruder relative mode
M104 S215 ; set extruder temp
M140 S60 ; set bed temp
M190 S60 ; wait for bed temp
M109 S215 ; wait for extruder temp
G28 W ; home all without mesh bed level
G80 ; mesh bed leveling
G1 Y-3.0 F1000.0 ; go outside print area
G92 E0.0
G1 X60.0 E9.0 F1000.0 ; intro line
G1 X100.0 E12.5 F1000.0 ; intro line
G92 E0.0
M221 S95

; Don't change E values below. Excessive value can damage the printer.
M907 E430 ; set extruder motor current
M107
G21 ; set units to millimeters
G90 ; use absolute coordinates
M83 ; use relative distances for extrusion
M900 K0.05 ; Filament gcode LA 1.5
M900 K30 ; Filament gcode LA 1.0
;LAYER_CHANGE
;Z:0.2
;HEIGHT:0.2
;BEFORE_LAYER_CHANGE
;0.2


G1 E-0.80000 F2100
G1 Z0.400000 F10800
;AFTER_LAYER_CHANGE
;0.2
G1 X88.586 Y47.137
G1 Z0.200000
G1 E0.80000 F2100
;TYPE:Skirt
;WIDTH:0.45
G1 F1200
G1 X89.927 Y45.194 E0.07990
G1 X91.874 Y43.835 E0.08037
G1 X92.464 Y43.571 E0.02189
G1 X94.882 Y43.123 E0.08324
G1 X160.897 Y43.123 E2.23452
G1 X163.572 Y43.654 E0.09232
G1 X165.823 Y45.150 E0.09147
G1 X166.114 Y45.498 E0.01537
G1 X167.349 Y47.411 E0.07708
G1 X167.886 Y49.906 E0.08639
G1 X167.895 Y61.192 E0.38202
G1 X167.462 Y63.506 E0.07967
G1 X167.194 Y64.130 E0.02300
G1 X165.854 Y66.064 E0.07965
G1 X163.916 Y67.412 E0.07988
G1 X163.329 Y67.675 E0.02177
G1 X160.911 Y68.122 E0.08324
G1 X94.776 Y68.119 E2.23861
G1 X92.249 Y67.602 E0.08730
G1 X90.230 Y66.311 E0.08112
G1 X89.685 Y65.757 E0.02630
G1 X88.584 Y64.104 E0.06721
G1 X88.345 Y63.555 E0.02030
G1 X87.897 Y61.127 E0.08357
G1 X87.898 Y50.053 E0.37483
G1 X88.307 Y47.843 E0.07608
G1 X88.564 Y47.193 E0.02366
; INIT printing object Merged id:0 copy 0
;WIPE_START
G1 F8640
G1 X89.927 Y45.194 E-0.55858
G1 X90.642 Y44.695 E-0.20142
;WIPE_END
G1 E-0.04000 F2100
G1 Z1.000000 F10800
; printing object Merged id:0 copy 0
M486 S0
G1 X124.207 Y59.594
G1 Z0.200000
G1 E0.80000 F2100
;TYPE:Internal perimeter
;WIDTH:0.42
G1 F1200
G1 X125.073 Y58.299 E0.04886
G1 X126.368 Y57.433 E0.04886
G1 X127.897 Y57.129 E0.04886
G1 X128.182 Y57.186 E0.00914
G1 X129.425 Y57.433 E0.03972
G1 X130.720 Y58.299 E0.04886
G1 X131.586 Y59.594 E0.04886
G1 X131.890 Y61.123 E0.04886
M73 Q1 S30
G1 X131.586 Y62.651 E0.04886
G1 X130.720 Y63.946 E0.04886
M73 P1 R30
G1 X129.425 Y64.812 E0.04886
G1 X127.897 Y65.116 E0.04886
G1 X126.368 Y64.812 E0.04886
G1 X125.073 Y63.946 E0.04886
G1 X124.207 Y62.651 E0.04886
G1 X123.903 Y61.123 E0.04886
G1 X124.195 Y59.653 E0.04697
G1 X123.825 Y59.580 F10800
;TYPE:External perimeter
G1 F1200
G1 X123.852 Y59.447 E0.00423
G1 X124.801 Y58.027 E0.05356
G1 X126.221 Y57.078 E0.05356
G1 X127.897 Y56.745 E0.05356
G1 X128.256 Y56.816 E0.01149
G1 X129.572 Y57.078 E0.04207
G1 X130.992 Y58.027 E0.05356
G1 X131.941 Y59.447 E0.05356
G1 X132.275 Y61.123 E0.05356
G1 X131.941 Y62.798 E0.05356
G1 X130.992 Y64.218 E0.05356
G1 X129.572 Y65.167 E0.05356
G1 X127.897 Y65.501 E0.05356
G1 X126.221 Y65.167 E0.05356
G1 X124.801 Y64.218 E0.05356
G1 X123.852 Y62.798 E0.05356
G1 X123.518 Y61.123 E0.05356
G1 X123.814 Y59.638 E0.04745
G1 X123.953 Y59.536 F10800
;WIPE_START
G1 F8640
G1 X123.852 Y59.447 E-0.04503
G1 X124.801 Y58.027 E-0.39444
G1 X125.955 Y57.256 E-0.32053
;WIPE_END
G1 E-0.04000 F2100
G1 Z0.600000 F10800
G1 X131.568 Y60.082
G1 Z0.200000
G1 E0.80000 F2100
;TYPE:Solid infill
;WIDTH:0.431384
G1 F1800
G1 X129.153 Y57.667 E0.10998
G1 X128.487 Y57.535 E0.02186
G1 X131.484 Y60.532 E0.13649
G1 X131.602 Y61.123 E0.01940
G1 X131.592 Y61.173 E0.00164
G1 X127.847 Y57.427 E0.17058
G1 X127.402 Y57.516 E0.01460
G1 X131.503 Y61.617 E0.18680
G1 X131.415 Y62.062 E0.01460
G1 X126.957 Y57.604 E0.20303
G1 X126.512 Y57.693 E0.01460
G1 X131.326 Y62.507 E0.21926
G1 X131.320 Y62.541 E0.00110
G1 X131.122 Y62.836 E0.01145
G1 X126.183 Y57.897 E0.22495
G1 X125.863 Y58.111 E0.01238
G1 X130.909 Y63.156 E0.22978
G1 X130.695 Y63.475 E0.01238
G1 X125.544 Y58.324 E0.23461
G1 X125.277 Y58.503 E0.01035
G1 X125.241 Y58.555 E0.00203
G1 X130.464 Y63.778 E0.23785
G1 X130.144 Y63.991 E0.01238
G1 X125.028 Y58.875 E0.23302
G1 X124.814 Y59.194 E0.01238
G1 X129.825 Y64.205 E0.22819
G1 X129.505 Y64.418 E0.01238
G1 X124.601 Y59.514 E0.22336
G1 X124.473 Y59.705 E0.00738
G1 X124.438 Y59.884 E0.00590
G1 X129.135 Y64.582 E0.21393
G1 X128.690 Y64.670 E0.01460
G1 X124.349 Y60.329 E0.19770
G1 X124.261 Y60.774 E0.01460
G1 X128.245 Y64.759 E0.18147
G1 X127.897 Y64.828 E0.01145
G1 X127.753 Y64.799 E0.00472
G1 X124.220 Y61.266 E0.16090
G1 X124.352 Y61.932 E0.02186
G1 X127.087 Y64.667 E0.12455
G1 X126.479 Y64.546 E0.01998
G1 X126.340 Y64.453 E0.00536
G1 X124.269 Y62.382 E0.09434
;WIPE_START
G1 F8640
G1 X126.340 Y64.453 E-0.67645
G1 X126.479 Y64.546 E-0.03842
G1 X126.670 Y64.584 E-0.04513
;WIPE_END
G1 E-0.04000 F2100
G1 Z0.600000 F10800
G1 X129.753 Y57.931
G1 Z0.200000
G1 E0.80000 F2100
;TYPE:Gap fill
;WIDTH:0.138921
G1 F1200
G1 X129.771 Y57.946 E0.00019
G1 X129.929 Y58.076 E0.00163
;WIDTH:0.183076
G1 X130.068 Y58.190 E0.00210
;WIDTH:0.227231
G1 X130.208 Y58.304 E0.00276
;WIDTH:0.271386
G1 X130.347 Y58.419 E0.00342
;WIDTH:0.315541
G1 X130.486 Y58.533 E0.00409
G1 X130.601 Y58.672 E0.00409
;WIDTH:0.271386
G1 X130.715 Y58.812 E0.00342
;WIDTH:0.227231
G1 X130.829 Y58.951 E0.00276
;WIDTH:0.183075
G1 X130.944 Y59.090 E0.00210
;WIDTH:0.12993
G1 X131.073 Y59.248 E0.00148
G1 X131.088 Y59.267 E0.00017
;WIPE_START
G1 F8640
G1 X131.073 Y59.248 E-0.00554
G1 X130.944 Y59.090 E-0.04715
;WIPE_END
G1 E-0.74730 F2100
G1 Z0.600000 F10800
G1 X120.890 Y61.123
G1 Z0.200000
G1 E0.80000 F2100
;TYPE:Internal perimeter
;WIDTH:0.42
G1 F1200
G1 X120.586 Y62.651 E0.04886
G1 X119.720 Y63.946 E0.04886
G1 X118.425 Y64.812 E0.04886
G1 X116.897 Y65.116 E0.04886
G1 X115.368 Y64.812 E0.04886
G1 X114.073 Y63.946 E0.04886
G1 X113.207 Y62.651 E0.04886
G1 X112.903 Y61.123 E0.04886
G1 X113.207 Y59.594 E0.04886
G1 X114.073 Y58.299 E0.04886
G1 X115.368 Y57.433 E0.04886
G1 X116.897 Y57.129 E0.04886
G1 X118.139 Y57.376 E0.03972
G1 X118.425 Y57.433 E0.00914
G1 X119.720 Y58.299 E0.04886
G1 X120.586 Y59.594 E0.04886
G1 X120.878 Y61.064 E0.04697
G1 X121.248 Y60.990 F10800
;TYPE:External perimeter
G1 F1200
G1 X121.275 Y61.123 E0.00423
G1 X120.941 Y62.798 E0.05356
G1 X119.992 Y64.218 E0.05356
G1 X118.572 Y65.167 E0.05356
G1 X116.897 Y65.501 E0.05356
G1 X115.221 Y65.167 E0.05356
G1 X113.801 Y64.218 E0.05356
G1 X112.852 Y62.798 E0.05356
G1 X112.518 Y61.123 E0.05356
G1 X112.852 Y59.447 E0.05356
G1 X113.801 Y58.027 E0.05356
G1 X115.221 Y57.078 E0.05356
G1 X116.897 Y56.745 E0.05356
G1 X118.213 Y57.006 E0.04207
G1 X118.572 Y57.078 E0.01149
G1 X119.992 Y58.027 E0.05356
G1 X120.941 Y59.447 E0.05356
G1 X121.237 Y60.931 E0.04745
G1 X121.147 Y61.079 F10800
;WIPE_START
G1 F8640
G1 X121.275 Y61.123 E-0.04503
G1 X120.941 Y62.798 E-0.39443
G1 X120.170 Y63.952 E-0.32054
;WIPE_END
G1 E-0.04000 F2100
G1 Z0.600000 F10800
G1 X120.568 Y60.082
G1 Z0.200000
G1 E0.80000 F2100
;TYPE:Solid infill
;WIDTH:0.431384
G1 F1800
G1 X118.153 Y57.667 E0.10998
G1 X118.084 Y57.654 E0.00227
G1 X117.487 Y57.535 E0.01958
G1 X120.484 Y60.532 E0.13649
G1 X120.602 Y61.123 E0.01940
G1 X120.592 Y61.173 E0.00164
G1 X116.847 Y57.427 E0.17057
G1 X116.402 Y57.516 E0.01460
G1 X120.503 Y61.617 E0.18680
G1 X120.415 Y62.062 E0.01460
G1 X115.957 Y57.604 E0.20303
G1 X115.512 Y57.693 E0.01460
G1 X120.326 Y62.507 E0.21926
G1 X120.320 Y62.541 E0.00110
G1 X120.122 Y62.836 E0.01145
G1 X115.183 Y57.897 E0.22495
G1 X114.863 Y58.111 E0.01238
G1 X119.909 Y63.156 E0.22978
G1 X119.695 Y63.475 E0.01238
G1 X114.544 Y58.324 E0.23461
G1 X114.277 Y58.503 E0.01035
G1 X114.241 Y58.555 E0.00203
G1 X119.464 Y63.778 E0.23785
G1 X119.144 Y63.991 E0.01238
G1 X114.028 Y58.875 E0.23302
G1 X113.814 Y59.194 E0.01238
G1 X118.825 Y64.205 E0.22819
G1 X118.505 Y64.418 E0.01238
G1 X113.601 Y59.514 E0.22336
G1 X113.473 Y59.705 E0.00738
G1 X113.438 Y59.884 E0.00590
G1 X118.135 Y64.582 E0.21393
G1 X117.690 Y64.670 E0.01460
G1 X113.349 Y60.329 E0.19770
G1 X113.261 Y60.774 E0.01460
G1 X117.245 Y64.759 E0.18147
G1 X116.897 Y64.828 E0.01145
G1 X116.753 Y64.799 E0.00472
G1 X113.220 Y61.266 E0.16090
G1 X113.352 Y61.932 E0.02186
G1 X116.087 Y64.667 E0.12455
G1 X115.479 Y64.546 E0.01998
G1 X115.340 Y64.453 E0.00536
G1 X113.269 Y62.382 E0.09435
;WIPE_START
G1 F8640
G1 X115.340 Y64.453 E-0.67646
G1 X115.479 Y64.546 E-0.03842
G1 X115.670 Y64.584 E-0.04513
;WIPE_END
G1 E-0.04000 F2100
G1 Z0.600000 F10800
G1 X118.753 Y57.931
G1 Z0.200000
G1 E0.80000 F2100
;TYPE:Gap fill
;WIDTH:0.13892
G1 F1200
G1 X118.790 Y57.961 E0.00038
G1 X118.929 Y58.076 E0.00144
;WIDTH:0.183076
G1 X119.068 Y58.190 E0.00210
;WIDTH:0.227231
G1 X119.208 Y58.304 E0.00276
;WIDTH:0.271386
G1 X119.347 Y58.419 E0.00342
;WIDTH:0.315542
G1 X119.486 Y58.533 E0.00409
G1 X119.601 Y58.672 E0.00409
;WIDTH:0.271387
G1 X119.715 Y58.812 E0.00342
;WIDTH:0.227232
G1 X119.829 Y58.951 E0.00276
;WIDTH:0.183076
G1 X119.944 Y59.090 E0.00210
;WIDTH:0.129929
G1 X120.058 Y59.229 E0.00130
G1 X120.088 Y59.267 E0.00035
;WIPE_START
G1 F8640
G1 X120.058 Y59.229 E-0.01108
G1 X119.944 Y59.090 E-0.04161
;WIPE_END
G1 E-0.74731 F2100
G1 Z0.600000 F10800
G1 X118.425 Y53.812
G1 Z0.200000
G1 E0.80000 F2100
;TYPE:Internal perimeter
;WIDTH:0.42
G1 F1200
G1 X116.897 Y54.116 E0.04886
G1 X115.368 Y53.812 E0.04886
G1 X114.073 Y52.946 E0.04886
G1 X113.207 Y51.651 E0.04886
G1 X112.903 Y50.123 E0.04886
G1 X113.207 Y48.594 E0.04886
G1 X114.073 Y47.299 E0.04886
G1 X115.368 Y46.433 E0.04886
G1 X116.897 Y46.129 E0.04886
G1 X118.139 Y46.376 E0.03972
G1 X118.425 Y46.433 E0.00914
G1 X119.720 Y47.299 E0.04886
G1 X120.586 Y48.594 E0.04886
G1 X120.890 Y50.123 E0.04886
G1 X120.586 Y51.651 E0.04886
G1 X119.720 Y52.946 E0.04886
G1 X118.475 Y53.779 E0.04698
G1 X118.684 Y54.092 F10800
;TYPE:External perimeter
G1 F1200
G1 X118.572 Y54.167 E0.00423
G1 X116.897 Y54.501 E0.05356
G1 X115.221 Y54.167 E0.05356
G1 X113.801 Y53.218 E0.05356
G1 X112.852 Y51.798 E0.05356
G1 X112.518 Y50.123 E0.05356
M73 Q2 S30
G1 X112.852 Y48.447 E0.05356
G1 X113.801 Y47.027 E0.05356
M73 P2 R30
G1 X115.221 Y46.078 E0.05356
G1 X116.897 Y45.745 E0.05356
G1 X118.213 Y46.006 E0.04207
G1 X118.572 Y46.078 E0.01149
G1 X119.992 Y47.027 E0.05356
G1 X120.941 Y48.447 E0.05356
G1 X121.275 Y50.123 E0.05356
G1 X120.941 Y51.798 E0.05356
G1 X119.992 Y53.218 E0.05356
G1 X118.734 Y54.059 E0.04745
G1 X118.563 Y54.033 F10800
;WIPE_START
G1 F8640
G1 X118.572 Y54.167 E-0.04503
G1 X116.897 Y54.501 E-0.39443
G1 X115.535 Y54.230 E-0.32054
;WIPE_END
G1 E-0.04000 F2100
G1 Z0.600000 F10800
G1 X120.568 Y49.082
G1 Z0.200000
G1 E0.80000 F2100
;TYPE:Solid infill
;WIDTH:0.431384
G1 F1800
G1 X118.153 Y46.667 E0.10998
G1 X118.084 Y46.654 E0.00227
G1 X117.487 Y46.535 E0.01959
G1 X120.484 Y49.532 E0.13649
G1 X120.602 Y50.123 E0.01940
G1 X120.592 Y50.173 E0.00164
G1 X116.847 Y46.427 E0.17058
G1 X116.402 Y46.516 E0.01460
G1 X120.503 Y50.617 E0.18680
G1 X120.415 Y51.062 E0.01460
G1 X115.957 Y46.604 E0.20303
G1 X115.512 Y46.693 E0.01460
G1 X120.326 Y51.507 E0.21926
G1 X120.320 Y51.541 E0.00110
G1 X120.122 Y51.836 E0.01145
G1 X115.183 Y46.897 E0.22495
G1 X114.863 Y47.111 E0.01238
G1 X119.909 Y52.156 E0.22978
G1 X119.695 Y52.475 E0.01238
G1 X114.544 Y47.324 E0.23461
G1 X114.277 Y47.503 E0.01035
G1 X114.241 Y47.555 E0.00203
G1 X119.464 Y52.778 E0.23785
G1 X119.144 Y52.991 E0.01238
G1 X114.028 Y47.875 E0.23302
G1 X113.814 Y48.194 E0.01238
G1 X118.825 Y53.205 E0.22819
G1 X118.505 Y53.418 E0.01238
G1 X113.601 Y48.514 E0.22336
G1 X113.473 Y48.705 E0.00738
G1 X113.438 Y48.884 E0.00590
G1 X118.135 Y53.582 E0.21393
G1 X117.690 Y53.670 E0.01460
G1 X113.349 Y49.329 E0.19770
G1 X113.261 Y49.774 E0.01460
G1 X117.245 Y53.759 E0.18147
G1 X116.897 Y53.828 E0.01145
G1 X116.753 Y53.799 E0.00472
G1 X113.220 Y50.266 E0.16090
G1 X113.352 Y50.932 E0.02186
G1 X116.087 Y53.667 E0.12455
G1 X115.479 Y53.546 E0.01998
G1 X115.340 Y53.453 E0.00536
G1 X113.269 Y51.382 E0.09435
;WIPE_START
G1 F8640
G1 X115.340 Y53.453 E-0.67646
G1 X115.479 Y53.546 E-0.03842
G1 X115.670 Y53.584 E-0.04513
;WIPE_END
G1 E-0.04000 F2100
G1 Z0.600000 F10800
G1 X118.753 Y46.931
G1 Z0.200000
G1 E0.80000 F2100
;TYPE:Gap fill
;WIDTH:0.13892
G1 F1200
G1 X118.771 Y46.946 E0.00019
G1 X118.929 Y47.076 E0.00163
;WIDTH:0.183075
G1 X119.068 Y47.190 E0.00210
;WIDTH:0.227231
G1 X119.208 Y47.304 E0.00276
;WIDTH:0.271386
G1 X119.347 Y47.419 E0.00342
;WIDTH:0.315541
G1 X119.486 Y47.533 E0.00409
G1 X119.601 Y47.672 E0.00409
;WIDTH:0.271386
G1 X119.715 Y47.812 E0.00342
;WIDTH:0.227231
G1 X119.829 Y47.951 E0.00276
;WIDTH:0.183075
G1 X119.944 Y48.090 E0.00210
;WIDTH:0.12993
G1 X120.073 Y48.248 E0.00148
G1 X120.088 Y48.267 E0.00017
;WIPE_START
G1 F8640
G1 X120.073 Y48.248 E-0.00554
G1 X119.944 Y48.090 E-0.04715
;WIPE_END
G1 E-0.74730 F2100
G1 Z0.600000 F10800
G1 X129.425 Y46.433
G1 Z0.200000
G1 E0.80000 F2100
;TYPE:Internal perimeter
;WIDTH:0.42
G1 F1200
G1 X130.720 Y47.299 E0.04886
G1 X131.586 Y48.594 E0.04886
G1 X131.890 Y50.123 E0.04886
G1 X131.586 Y51.651 E0.04886
G1 X130.720 Y52.946 E0.04886
G1 X129.425 Y53.812 E0.04886
G1 X127.897 Y54.116 E0.04886
G1 X126.368 Y53.812 E0.04886
G1 X125.073 Y52.946 E0.04886
G1 X124.207 Y51.651 E0.04886
G1 X123.903 Y50.123 E0.04886
G1 X124.207 Y48.594 E0.04886
G1 X125.073 Y47.299 E0.04886
G1 X126.368 Y46.433 E0.04886
G1 X127.897 Y46.129 E0.04886
G1 X128.182 Y46.186 E0.00914
G1 X129.366 Y46.421 E0.03784
