; generated by PrusaSlicer 2.3.3+linux-x64 on 2021-07-22 at 12:39:00 UTC

; 

; external perimeters extrusion width = 0.45mm
; perimeters extrusion width = 0.45mm
; infill extrusion width = 0.45mm
; solid infill extrusion width = 0.45mm
; top infill extrusion width = 0.40mm
; first layer extrusion width = 0.42mm

M73 P0 R194
M73 Q0 S195
M201 X1000 Y1000 Z200 E5000 ; sets maximum accelerations, mm/sec^2
M203 X200 Y200 Z12 E120 ; sets maximum feedrates, mm/sec
M204 P1250 R1250 T1250 ; sets acceleration (P, T) and retract acceleration (R), mm/sec^2
M205 X8.00 Y8.00 Z0.40 E4.50 ; sets the jerk limits, mm/sec
M205 S0 T0 ; sets the minimum extruding and travel feed rate, mm/sec
M107
;TYPE:Custom
M862.3 P "MK3S" ; printer model check
M862.1 P0.4 ; nozzle diameter check
M115 U3.10.0 ; tell printer latest fw version
G90 ; use absolute coordinates
M83 ; extruder relative mode
M104 S215 ; set extruder temp
M140 S60 ; set bed temp
M190 S60 ; wait for bed temp
M109 S215 ; wait for extruder temp
G28 W ; home all without mesh bed level
G80 ; mesh bed leveling
G1 Y-3.0 F1000.0 ; go outside print area
G92 E0.0
G1 X60.0 E9.0 F1000.0 ; intro line
G1 X100.0 E12.5 F1000.0 ; intro line
G92 E0.0
M221 S95

; Don't change E values below. Excessive value can damage the printer.
M907 E430 ; set extruder motor current
G21 ; set units to millimeters
G90 ; use absolute coordinates
M83 ; use relative distances for extrusion
M900 K0.05 ; Filament gcode LA 1.5
M900 K30 ; Filament gcode LA 1.0
;LAYER_CHANGE
;Z:0.2
;HEIGHT:0.2
;BEFORE_LAYER_CHANGE
G92 E0.0
;0.2


G1 E-0.80000 F2100.000
G1 Z0.400 F10800.000
;AFTER_LAYER_CHANGE
;0.2
G1 X6.164 Y86.062
G1 Z0.200
G1 E0.80000 F2100.000
M204 S1000
;TYPE:Skirt
;WIDTH:0.42
G1 F1200.000
G1 X7.042 Y85.456 E0.03347
G1 X7.585 Y85.259 E0.01811
G1 X8.495 Y85.123 E0.02884
G1 X212.004 Y85.123 E6.38088
G1 X213.290 Y85.379 E0.04111
G1 X214.382 Y86.106 E0.04115
G1 X215.114 Y87.193 E0.04110
G1 X215.377 Y88.468 E0.04080
G1 X215.377 Y188.546 E3.13787
G1 X215.216 Y189.511 E0.03068
G1 X214.928 Y190.155 E0.02213
G1 X214.340 Y190.934 E0.03060
G1 X213.460 Y191.543 E0.03353
G1 X212.914 Y191.741 E0.01823
G1 X212.006 Y191.877 E0.02880
G1 X8.481 Y191.877 E6.38138
M73 Q0 S194
G1 X7.494 Y191.718 E0.03134
G1 X6.845 Y191.432 E0.02225
G1 X6.063 Y190.837 E0.03079
G1 X5.461 Y189.965 E0.03323
G1 X5.266 Y189.429 E0.01787
G1 X5.125 Y188.519 E0.02888
G1 X5.123 Y88.466 E3.13711
M73 P0 R193
G1 X5.285 Y87.483 E0.03122
G1 X5.572 Y86.838 E0.02213
G1 X6.127 Y86.110 E0.02871
; printing object board.stl id:0 copy 1
;WIPE_START
G1 F8640.000
G1 X7.042 Y85.456 E-0.25968
G1 X7.585 Y85.259 E-0.13336
G1 X8.495 Y85.123 E-0.21241
G1 X9.164 Y85.123 E-0.15456
;WIPE_END
G1 E-0.04000 F2100.000
G1 Z0.600 F10800.000
G1 X111.818 Y88.424
G1 Z0.200
G1 E0.80000 F2100.000
;TYPE:Perimeter
G1 F1200.000
G1 X111.860 Y88.360 E0.00241
G1 X111.925 Y88.317 E0.00242
G1 X112.077 Y88.287 E0.00489
G1 X211.923 Y88.287 E3.13058
G1 X212.075 Y88.317 E0.00489
G1 X212.140 Y88.360 E0.00242
G1 X212.182 Y88.424 E0.00241
G1 X212.213 Y88.577 E0.00490
G1 X212.213 Y188.423 E3.13057
G1 X212.182 Y188.576 E0.00489
G1 X212.140 Y188.640 E0.00242
G1 X212.076 Y188.682 E0.00242
G1 X211.923 Y188.713 E0.00489
G1 X112.078 Y188.713 E3.13057
G1 X111.924 Y188.682 E0.00489
G1 X111.860 Y188.640 E0.00242
G1 X111.818 Y188.576 E0.00242
G1 X111.787 Y188.422 E0.00489
G1 X111.787 Y88.577 E3.13057
G1 X111.806 Y88.483 E0.00302
G1 X111.436 Y88.410 F10800.000
;TYPE:External perimeter
G1 F1200.000
G1 X111.462 Y88.277 E0.00424
G1 X111.588 Y88.089 E0.00711
G1 X111.777 Y87.962 E0.00713
G1 X112.040 Y87.910 E0.00841
G1 X211.960 Y87.910 E3.13290
G1 X212.223 Y87.962 E0.00841
G1 X212.412 Y88.089 E0.00713
G1 X212.538 Y88.277 E0.00711
G1 X212.590 Y88.540 E0.00842
G1 X212.590 Y188.460 E3.13290
G1 X212.538 Y188.723 E0.00841
G1 X212.412 Y188.912 E0.00712
G1 X212.223 Y189.038 E0.00712
G1 X211.960 Y189.090 E0.00841
G1 X112.040 Y189.090 E3.13290
G1 X111.777 Y189.038 E0.00841
G1 X111.588 Y188.912 E0.00712
G1 X111.462 Y188.723 E0.00712
G1 X111.410 Y188.460 E0.00841
G1 X111.410 Y88.540 E3.13290
G1 X111.424 Y88.468 E0.00230
G1 X111.561 Y88.358 F10800.000
G1 X112.070 Y88.726
;TYPE:Solid infill
G1 F1200.000
G1 X112.226 Y88.726 E0.00488
G1 X112.226 Y88.570 E0.00488
G1 X112.603 Y88.570 F10800.000
G1 F1200.000
G1 X112.603 Y89.103 E0.01670
G1 X112.070 Y89.103 E0.01670
G1 X112.070 Y89.480 F10800.000
G1 F1200.000
G1 X112.980 Y89.480 E0.02853
G1 X112.980 Y88.570 E0.02853
;WIPE_START
G1 F8640.000
G1 X112.980 Y89.480 E-0.21009
G1 X112.070 Y89.480 E-0.21009
;WIPE_END
G1 E-0.37983 F2100.000
G1 Z0.600 F10800.000
G1 X112.070 Y89.857
G1 Z0.200
G1 E0.80000 F2100.000
G1 F1200.000
G1 X113.357 Y89.857 E0.04035
G1 X113.357 Y88.570 E0.04035
G1 X113.734 Y88.570 F10800.000
G1 F1200.000
G1 X113.734 Y90.234 E0.05217
G1 X112.070 Y90.234 E0.05217
G1 X112.070 Y90.611 F10800.000
G1 F1200.000
G1 X114.111 Y90.611 E0.06400
G1 X114.111 Y88.570 E0.06400
G1 X114.488 Y88.570 F10800.000
G1 F1200.000
G1 X114.488 Y90.988 E0.07582
G1 X112.070 Y90.988 E0.07582
G1 X112.070 Y91.365 F10800.000
G1 F1200.000
G1 X114.865 Y91.365 E0.08764
G1 X114.865 Y88.570 E0.08764
G1 X115.242 Y88.570 F10800.000
G1 F1200.000
G1 X115.242 Y91.742 E0.09947
G1 X112.070 Y91.742 E0.09947
G1 X112.070 Y92.119 F10800.000
G1 F1200.000
G1 X115.619 Y92.119 E0.11129
G1 X115.619 Y88.570 E0.11129
G1 X115.996 Y88.570 F10800.000
G1 F1200.000
G1 X115.996 Y92.496 E0.12311
G1 X112.070 Y92.496 E0.12311
G1 X112.070 Y92.873 F10800.000
G1 F1200.000
G1 X116.373 Y92.873 E0.13494
G1 X116.373 Y88.570 E0.13494
;WIPE_START
G1 F8640.000
G1 X116.373 Y91.861 E-0.76000
;WIPE_END
G1 E-0.04000 F2100.000
G1 Z0.600 F10800.000
G1 X117.505 Y88.570
G1 Z0.200
G1 E0.80000 F2100.000
G1 F1200.000
G1 X117.505 Y94.005 E0.17040
M73 Q0 S193
G1 X112.070 Y94.005 E0.17040
G1 X112.070 Y94.382 F10800.000
G1 F1200.000
G1 X117.882 Y94.382 E0.18223
G1 X117.882 Y88.570 E0.18223
;WIPE_START
G1 F8640.000
G1 X117.882 Y91.861 E-0.76000
;WIPE_END
G1 E-0.04000 F2100.000
G1 Z0.600 F10800.000
G1 X119.013 Y88.570
G1 Z0.200
G1 E0.80000 F2100.000
G1 F1200.000
G1 X119.013 Y95.513 E0.21770
G1 X112.070 Y95.513 E0.21770
G1 X112.070 Y95.890 F10800.000
G1 F1200.000
G1 X119.390 Y95.890 E0.22952
G1 X119.390 Y88.570 E0.22952
;WIPE_START
G1 F8640.000
G1 X119.390 Y91.861 E-0.76000
;WIPE_END
G1 E-0.04000 F2100.000
G1 Z0.600 F10800.000
G1 X120.521 Y88.570
G1 Z0.200
G1 E0.80000 F2100.000
G1 F1200.000
G1 X120.521 Y97.021 E0.26499
G1 X112.070 Y97.021 E0.26499
G1 X112.070 Y97.398 F10800.000
G1 F1200.000
G1 X120.898 Y97.398 E0.27681
G1 X120.898 Y88.570 E0.27681
;WIPE_START
G1 F8640.000
G1 X120.898 Y91.861 E-0.76000
;WIPE_END
G1 E-0.04000 F2100.000
G1 Z0.600 F10800.000
G1 X127.309 Y88.570
G1 Z0.200
G1 E0.80000 F2100.000
G1 F1200.000
G1 X127.309 Y103.809 E0.47780
G1 X112.070 Y103.809 E0.47780
G1 X112.070 Y103.432 F10800.000
G1 F1200.000
G1 X126.932 Y103.432 E0.46598
G1 X126.932 Y88.570 E0.46598
;WIPE_START
G1 F8640.000
G1 X126.932 Y91.861 E-0.76000
;WIPE_END
G1 E-0.04000 F2100.000
G1 Z0.600 F10800.000
G1 X125.800 Y88.570
G1 Z0.200
G1 E0.80000 F2100.000
G1 F1200.000
G1 X125.800 Y102.300 E0.43051
G1 X112.070 Y102.300 E0.43051
G1 X112.070 Y101.923 F10800.000
G1 F1200.000
G1 X125.423 Y101.923 E0.41869
M73 P0 R192
G1 X125.423 Y88.570 E0.41869
;WIPE_START
G1 F8640.000
G1 X125.423 Y91.861 E-0.76000
;WIPE_END
G1 E-0.04000 F2100.000
G1 Z0.600 F10800.000
G1 X124.292 Y88.570
G1 Z0.200
G1 E0.80000 F2100.000
G1 F1200.000
G1 X124.292 Y100.792 E0.38322
G1 X112.070 Y100.792 E0.38322
G1 X112.070 Y100.415 F10800.000
G1 F1200.000
G1 X123.915 Y100.415 E0.37140
G1 X123.915 Y88.570 E0.37140
;WIPE_START
G1 F8640.000
G1 X123.915 Y91.861 E-0.76000
;WIPE_END
G1 E-0.04000 F2100.000
G1 Z0.600 F10800.000
G1 X122.784 Y88.570
G1 Z0.200
G1 E0.80000 F2100.000
G1 F1200.000
G1 X122.784 Y99.284 E0.33593
G1 X112.070 Y99.284 E0.33593
G1 X112.070 Y98.907 F10800.000
G1 F1200.000
G1 X122.407 Y98.907 E0.32410
G1 X122.407 Y88.570 E0.32410
G1 X122.030 Y88.570 F10800.000
G1 F1200.000
G1 X122.030 Y98.530 E0.31228
G1 X112.070 Y98.530 E0.31228
G1 X112.070 Y98.153 F10800.000
G1 F1200.000
G1 X121.653 Y98.153 E0.30046
G1 X121.653 Y88.570 E0.30046
G1 X121.275 Y88.570 F10800.000
G1 F1200.000
G1 X121.275 Y97.775 E0.28863
G1 X112.070 Y97.775 E0.28863
;WIPE_START
G1 F8640.000
G1 X115.361 Y97.775 E-0.76000
;WIPE_END
G1 E-0.04000 F2100.000
G1 Z0.600 F10800.000
G1 X112.070 Y96.644
G1 Z0.200
G1 E0.80000 F2100.000
G1 F1200.000
G1 X120.144 Y96.644 E0.25317
G1 X120.144 Y88.570 E0.25317
G1 X119.767 Y88.570 F10800.000
G1 F1200.000
G1 X119.767 Y96.267 E0.24134
G1 X112.070 Y96.267 E0.24134
;WIPE_START
G1 F8640.000
G1 X115.361 Y96.267 E-0.76000
;WIPE_END
G1 E-0.04000 F2100.000
G1 Z0.600 F10800.000
G1 X112.070 Y95.136
G1 Z0.200
G1 E0.80000 F2100.000
G1 F1200.000
G1 X118.636 Y95.136 E0.20587
G1 X118.636 Y88.570 E0.20587
G1 X118.259 Y88.570 F10800.000
G1 F1200.000
G1 X118.259 Y94.759 E0.19405
G1 X112.070 Y94.759 E0.19405
;WIPE_START
G1 F8640.000
G1 X115.361 Y94.759 E-0.76000
;WIPE_END
G1 E-0.04000 F2100.000
G1 Z0.600 F10800.000
G1 X112.070 Y93.628
G1 Z0.200
G1 E0.80000 F2100.000
G1 F1200.000
G1 X117.128 Y93.628 E0.15858
G1 X117.128 Y88.570 E0.15858
G1 X116.751 Y88.570 F10800.000
G1 F1200.000
G1 X116.751 Y93.251 E0.14676
G1 X112.070 Y93.251 E0.14676
;WIPE_START
G1 F8640.000
G1 X115.361 Y93.251 E-0.76000
;WIPE_END
G1 E-0.04000 F2100.000
G1 Z0.600 F10800.000
G1 X112.070 Y99.661
G1 Z0.200
G1 E0.80000 F2100.000
G1 F1200.000
G1 X123.161 Y99.661 E0.34775
G1 X123.161 Y88.570 E0.34775
G1 X123.538 Y88.570 F10800.000
G1 F1200.000
G1 X123.538 Y100.038 E0.35957
G1 X112.070 Y100.038 E0.35957
;WIPE_START
G1 F8640.000
G1 X115.361 Y100.038 E-0.76000
;WIPE_END
G1 E-0.04000 F2100.000
G1 Z0.600 F10800.000
G1 X112.070 Y101.169
G1 Z0.200
G1 E0.80000 F2100.000
G1 F1200.000
G1 X124.669 Y101.169 E0.39504
G1 X124.669 Y88.570 E0.39504
G1 X125.046 Y88.570 F10800.000
G1 F1200.000
G1 X125.046 Y101.546 E0.40687
G1 X112.070 Y101.546 E0.40687
;WIPE_START
G1 F8640.000
G1 X115.361 Y101.546 E-0.76000
;WIPE_END
G1 E-0.04000 F2100.000
G1 Z0.600 F10800.000
G1 X112.070 Y102.677
G1 Z0.200
G1 E0.80000 F2100.000
G1 F1200.000
G1 X126.177 Y102.677 E0.44233
M73 Q1 S193
G1 X126.177 Y88.570 E0.44233
M73 P1 R192
G1 X126.555 Y88.570 F10800.000
G1 F1200.000
G1 X126.555 Y103.055 E0.45416
G1 X112.070 Y103.055 E0.45416
;WIPE_START
G1 F8640.000
G1 X115.361 Y103.055 E-0.76000
;WIPE_END
G1 E-0.04000 F2100.000
G1 Z0.600 F10800.000
G1 X112.070 Y104.186
G1 Z0.200
G1 E0.80000 F2100.000
G1 F1200.000
G1 X127.686 Y104.186 E0.48963
G1 X127.686 Y88.570 E0.48963
G1 X128.063 Y88.570 F10800.000
G1 F1200.000
G1 X128.063 Y104.563 E0.50145
G1 X112.070 Y104.563 E0.50145
G1 X112.070 Y104.940 F10800.000
G1 F1200.000
G1 X128.440 Y104.940 E0.51327
G1 X128.440 Y88.570 E0.51327
G1 X128.817 Y88.570 F10800.000
G1 F1200.000
G1 X128.817 Y105.317 E0.52510
G1 X112.070 Y105.317 E0.52510
G1 X112.070 Y105.694 F10800.000
G1 F1200.000
G1 X129.194 Y105.694 E0.53692
G1 X129.194 Y88.570 E0.53692
;WIPE_START
G1 F8640.000
G1 X129.194 Y91.861 E-0.76000
;WIPE_END
G1 E-0.04000 F2100.000
G1 Z0.600 F10800.000
G1 X130.325 Y88.570
G1 Z0.200
G1 E0.80000 F2100.000
G1 F1200.000
G1 X130.325 Y106.825 E0.57239
G1 X112.070 Y106.825 E0.57239
G1 X112.070 Y107.202 F10800.000
G1 F1200.000
G1 X130.702 Y107.202 E0.58421
G1 X130.702 Y88.570 E0.58421
;WIPE_START
G1 F8640.000
G1 X130.702 Y91.861 E-0.76000
;WIPE_END
G1 E-0.04000 F2100.000
G1 Z0.600 F10800.000
G1 X131.834 Y88.570
G1 Z0.200
G1 E0.80000 F2100.000
G1 F1200.000
G1 X131.834 Y108.334 E0.61968
G1 X112.070 Y108.334 E0.61968
G1 X112.070 Y108.711 F10800.000
G1 F1200.000
G1 X132.211 Y108.711 E0.63150
G1 X132.211 Y88.570 E0.63150
;WIPE_START
G1 F8640.000
G1 X132.211 Y91.861 E-0.76000
;WIPE_END
G1 E-0.04000 F2100.000
G1 Z0.600 F10800.000
G1 X133.342 Y88.570
G1 Z0.200
G1 E0.80000 F2100.000
G1 F1200.000
G1 X133.342 Y109.842 E0.66697
G1 X112.070 Y109.842 E0.66697
G1 X112.070 Y110.219 F10800.000
G1 F1200.000
G1 X133.719 Y110.219 E0.67880
G1 X133.719 Y88.570 E0.67880
;WIPE_START
G1 F8640.000
G1 X133.719 Y91.861 E-0.76000
;WIPE_END
G1 E-0.04000 F2100.000
G1 Z0.600 F10800.000
G1 X140.129 Y88.570
G1 Z0.200
G1 E0.80000 F2100.000
G1 F1200.000
G1 X140.129 Y116.629 E0.87979
G1 X112.070 Y116.629 E0.87979
M73 Q1 S192
G1 X112.070 Y116.252 F10800.000
G1 F1200.000
G1 X139.752 Y116.252 E0.86796
G1 X139.752 Y88.570 E0.86796
;WIPE_START
G1 F8640.000
G1 X139.752 Y91.861 E-0.76000
;WIPE_END
G1 E-0.04000 F2100.000
G1 Z0.600 F10800.000
G1 X138.621 Y88.570
G1 Z0.200
G1 E0.80000 F2100.000
G1 F1200.000
G1 X138.621 Y115.121 E0.83250
G1 X112.070 Y115.121 E0.83250
G1 X112.070 Y114.744 F10800.000
G1 F1200.000
G1 X138.244 Y114.744 E0.82067
G1 X138.244 Y88.570 E0.82067
;WIPE_START
G1 F8640.000
G1 X138.244 Y91.861 E-0.76000
;WIPE_END
G1 E-0.04000 F2100.000
G1 Z0.600 F10800.000
G1 X137.113 Y88.570
G1 Z0.200
G1 E0.80000 F2100.000
G1 F1200.000
G1 X137.113 Y113.613 E0.78520
G1 X112.070 Y113.613 E0.78520
M73 P1 R191
G1 X112.070 Y113.236 F10800.000
G1 F1200.000
G1 X136.736 Y113.236 E0.77338
G1 X136.736 Y88.570 E0.77338
G1 X136.359 Y88.570 F10800.000
G1 F1200.000
G1 X136.359 Y112.859 E0.76156
G1 X112.070 Y112.859 E0.76156
G1 X112.070 Y112.482 F10800.000
G1 F1200.000
G1 X135.982 Y112.482 E0.74973
G1 X135.982 Y88.570 E0.74973
G1 X135.604 Y88.570 F10800.000
G1 F1200.000
G1 X135.604 Y112.104 E0.73791
G1 X112.070 Y112.104 E0.73791
G1 X112.070 Y111.727 F10800.000
G1 F1200.000
G1 X135.227 Y111.727 E0.72609
G1 X135.227 Y88.570 E0.72609
G1 X134.850 Y88.570 F10800.000
G1 F1200.000
G1 X134.850 Y111.350 E0.71426
G1 X112.070 Y111.350 E0.71426
G1 X112.070 Y110.973 F10800.000
G1 F1200.000
G1 X134.473 Y110.973 E0.70244
G1 X134.473 Y88.570 E0.70244
G1 X134.096 Y88.570 F10800.000
G1 F1200.000
G1 X134.096 Y110.596 E0.69062
G1 X112.070 Y110.596 E0.69062
;WIPE_START
G1 F8640.000
G1 X115.361 Y110.596 E-0.76000
;WIPE_END
G1 E-0.04000 F2100.000
G1 Z0.600 F10800.000
G1 X112.070 Y109.465
G1 Z0.200
G1 E0.80000 F2100.000
G1 F1200.000
G1 X132.965 Y109.465 E0.65515
G1 X132.965 Y88.570 E0.65515
G1 X132.588 Y88.570 F10800.000
G1 F1200.000
G1 X132.588 Y109.088 E0.64333
G1 X112.070 Y109.088 E0.64333
;WIPE_START
G1 F8640.000
G1 X115.361 Y109.088 E-0.76000
;WIPE_END
G1 E-0.04000 F2100.000
G1 Z0.600 F10800.000
G1 X112.070 Y107.957
G1 Z0.200
G1 E0.80000 F2100.000
G1 F1200.000
G1 X131.457 Y107.957 E0.60786
G1 X131.457 Y88.570 E0.60786
G1 X131.080 Y88.570 F10800.000
G1 F1200.000
G1 X131.080 Y107.580 E0.59603
G1 X112.070 Y107.580 E0.59603
;WIPE_START
G1 F8640.000
G1 X115.361 Y107.580 E-0.76000
;WIPE_END
G1 E-0.04000 F2100.000
G1 Z0.600 F10800.000
G1 X112.070 Y106.448
G1 Z0.200
G1 E0.80000 F2100.000
G1 F1200.000
G1 X129.948 Y106.448 E0.56056
G1 X129.948 Y88.570 E0.56056
G1 X129.571 Y88.570 F10800.000
G1 F1200.000
G1 X129.571 Y106.071 E0.54874
G1 X112.070 Y106.071 E0.54874
;WIPE_START
G1 F8640.000
G1 X115.361 Y106.071 E-0.76000
;WIPE_END
G1 E-0.04000 F2100.000
G1 Z0.600 F10800.000
G1 X112.070 Y113.990
G1 Z0.200
G1 E0.80000 F2100.000
G1 F1200.000
G1 X137.490 Y113.990 E0.79703
G1 X137.490 Y88.570 E0.79703
G1 X137.867 Y88.570 F10800.000
G1 F1200.000
G1 X137.867 Y114.367 E0.80885
G1 X112.070 Y114.367 E0.80885
;WIPE_START
G1 F8640.000
G1 X115.361 Y114.367 E-0.76000
;WIPE_END
G1 E-0.04000 F2100.000
G1 Z0.600 F10800.000
G1 X112.070 Y115.498
G1 Z0.200
G1 E0.80000 F2100.000
G1 F1200.000
G1 X138.998 Y115.498 E0.84432
G1 X138.998 Y88.570 E0.84432
G1 X139.375 Y88.570 F10800.000
G1 F1200.000
G1 X139.375 Y115.875 E0.85614
G1 X112.070 Y115.875 E0.85614
;WIPE_START
G1 F8640.000
G1 X115.361 Y115.875 E-0.76000
;WIPE_END
G1 E-0.04000 F2100.000
G1 Z0.600 F10800.000
G1 X112.070 Y117.006
G1 Z0.200
G1 E0.80000 F2100.000
G1 F1200.000
G1 X140.506 Y117.006 E0.89161
G1 X140.506 Y88.570 E0.89161
G1 X140.884 Y88.570 F10800.000
G1 F1200.000
G1 X140.884 Y117.384 E0.90343
G1 X112.070 Y117.384 E0.90343
;WIPE_START
M73 Q1 S191
G1 F8640.000
G1 X115.361 Y117.384 E-0.76000
;WIPE_END
G1 E-0.04000 F2100.000
G1 Z0.600 F10800.000
G1 X112.070 Y119.500
G1 Z0.200
G1 E0.80000 F2100.000
G1 F1200.000
G1 X131.070 Y138.500 E0.84251
G1 X112.070 Y157.500 E0.84251
G1 X112.070 Y158.034 F10800.000
G1 F1200.000
